X:1
T:Ahime che col fuggir
T:Luca Marenzio
T:1554-1599
T:Trascrizione di Fabrizio Barchi
T:Se brami mort'il core
T:dal 3° Libro delle villanelle a 3 voci 1587
T:Villanelle a 3 voci
C:Luca Marenzio
%%score [ 1 2 3 ]
L:1/8
Q:1/4=152
M:4/4
K:C
V:1 treble nm="S" snm="S"
V:2 treble nm="C" snm="C"
V:3 bass nm="B" snm="B"
V:1
 G8 | G8- | G4 G4 | G4 G4 | A8 | A8 | B2 c4 d2 || e6 c2 | B8 | A8 :: z2 B2 B3 A | B2 ^c2 d4 | %12
w: Se|bra-|* mi|mort' il|co-|re|col darm' ogn'|hor do-|lo-|re|Per- chè mi|do- n'a- i-|
 d2 G2 G3 G | G2 A2 B4- | B4 A4 | z4 c4- | c4 B3 A | G2 G2 A4 | G8 :| %19
w: ta co tua bel-|tà^in- fi- ni-|* ta|Deh|_ pri- va-|mi di vi-|ta.|
V:2
 D8 | E8- | E4 D4 | E4 G4 | ^F8 | ^F8 | G2 A4 B2 || c6 A2 | ^G2 A4 G2 | A8 :: z2 D2 D3 D | %11
w: Se|bra-|* mi|mort' il|co-|re|col darm' ogn'|hor do-|lo- * *|re|Per- chè mi|
 D2 E2 F4 | F2 E2 E3 D | E2 ^F2 G4- | G4 ^F4 | z4 A4- | A4 G3 F | E2 G2 ^F4 | G8 :| %19
w: do- n'a- i-|ta co tua bel-|tà^in- fi- ni-|* ta|Deh|_ pri- va-|mi di vi-|ta.|
V:3
 G,8 | C,8- | C,4 B,,4 | C,4 E,4 | D,8 | D,8 | G,2 F,4 D,2 || C,2 A,,2 C,3 D, | E,8 | A,,8 :: %10
w: Se|bra-|* mi|mort' il|co-|re|col darm' ogn'|hor do- lo- *||re|
 z2 G,,2 G,3 F, | G,2 E,2 D,4 | D,2 C,2 C,3 B,, | C,2 A,,2 G,,4- | G,,4 D,4 | z4 F,4- | %16
w: Per- chè mi|do- n'a- i-|ta co tua bel-|tà^in- fi- ni-|* ta|Deh|
 F,4 E,3 D, | C,2 E,2 D,4 | G,,8 :| %19
w: _ pri- va-|mi di vi-|ta.|

